X: 156
T:Cherish the Ladies
R:jig
M:6/8
L:1/8
Q:3/8=120
K:D
|:dFF AFF|DFF AGF|BEE GEE|BdB ABc|
dFF AFF|DFF AGF|Bcd efg|fdc d2A:|
|:dfd cec|dcd AGF|BEE GEE|BdB ABc|
dfd cec|dcd AGF|Bcd efg|fdd d2A:|
|:~d3 fdd|add fed|B2g gfg|efe gfe|
[1~d3 fdd|add fed|gbg fdB|AGF GFE:|
[2a^ga b2b|agf gfe|AGF AGF|GEF GFE||
|:A3 AGF|AGF AGF|A3/2B/2A AGF|GEF GFE|
A3 AGF|AGF AB=c|BGB AGF|GEF GFE:|
|:DFA dAF|DFA BGE|DFA dAF|GEF GFE|
DFA dfd|c2c AB=c|BGB AFA|GEF GFE:|
